X:1
T:Title
%%score 1 2 3 4
L:1/8
M:4/4
K:F
V:1 treble nm="Church Organ, Soprano"
V:2 treble nm="French Horn, Alto"
V:3 bass nm="Trombone, Tenor"
V:4 bass nm="Tuba, Bass"
V:1
 AB c2 c2 d2 | d2 A4 A2 | AB c2 c2 d2 | d2 A6 | A2 A2- A/ z/ G A2 | B2 G4 G2 | AB c2 B2 A2- | %7
w: By~From~"Le~teint~de~son~visage" * * * *|||||||
 AG ^F2- F/ z/ E F2 | G2 A6 | A2 A2- A/ z/ G A2 | B2 G4 G2 | AB c2 B2 A2- | AG ^F2 E2 F2- | %13
w: ||||||
 F^F G6 |] %14
w: |
V:2
 F2 E2 F2 F2 | AG E4 E2 | F2 E2 F2 F2 | AG E6 | F2 F2- F/ z/ E F2 | F2 _E4 D2 | F2 G2 F2 F2- | %7
 FD D2- D/ z/ E D2 | D2 E6 | F2 F2- F/ z/ E F2 | F2 E4 D2 | F2 G2 F2 _E2 | _E2 D2 =E2 D2- | %13
 DD =B,6 |] %14
V:3
 D2 C2 A,2 A,2 | A,=B,[K:treble] ^C4 C2 | D2 A,2 A,2[K:bass] A,2 | A,=B, ^C6 | %4
w: Babe~ Je su,~ hear~|our~ * dit ty,~|And~ think~ there of~|no~ * scorn:~|
 D2[K:treble] C2- C/ z/ C C2 | D2 C4 B,2 | D2 _E2 D2 C2- | C[K:bass]B, A,2- A,/ z/ A, A,2 | %8
w: We~ pray~ * Thee~ of~|Thy~ pi ty,~|On~ this~ Thy~ na|* tal~ morn:~ * We~ flee~|
 =B,2[K:treble] ^C6 | D2 C2- C/ z/ C C2 | D2 C4 B,2 | D2 _E2 D2 C2- | C[K:bass]B, A,2 A,2 A,2- | %13
w: to~ Thee,~|Who~ wast,~ * in~ Beth|lem~ Ci ty,~|Of~ Ma ry~ Maid|* en~ born~ For~ such~|
 A,D, D,6 |] %14
w: * as~ we.~|
V:4
 D,2 A,2 F,2 D,2 | F,G, A,4 A,2 | D,2 A,2 F,2 D,2 | F,G, A,6 | D,2 F,2- F,/ z/ C, F,2 | %5
 B,,2 C,4 G,2 | D,2 C,2 D,2 F,2- | F,G, D,2- D,/ z/ ^C, D,2 | =B,,2 A,,6 | D,2 F,2- F,/ z/ C, F,2 | %10
 B,,2 C,4 G,2 | D,2 C,2 C,2 C,2 | C,2 D,2 ^C,2 D,2- | D,D, G,,6 |] %14

